X:11601
T:Kempshott Hunt
R:Reel
C:Trad. - J Clare 1834
O:England, Northamptonshire
Z:Paul Hardy's Annex Tunebook 2015 (see www.paulhardy.net). Creative Commons cc by-nc-sa licenced.
M:2/2
L:1/8
Q:1/2=60
K:G
"G"d2Bd (B/2A/2)G Bd|(B/2A/2)G Bd "Am"cA A2|"G"Bd (B/2A/2)G Bdd2|Bd "C"ce "G"dGG2:|
|:("G"G/2A/2)G dB "C"ec dB|("G"G/2A/2)G dB "Am"cAA2|("G"G/2A/2)G dB "C"ec dB|"G"Bd "C"ce "G"dGG2:|
|:"G"g2dB g2dB|g2dB "Am"cAA2|"G"g2dB g2dB|Bd "C"ce "G"dGG2:|

